; generated by Slic3r 1.1.7 on 2015-05-26 at 13:53:40

; perimeters extrusion width = 0.40mm
; infill extrusion width = 1.28mm
; solid infill extrusion width = 0.68mm
; top infill extrusion width = 0.68mm

G21 ; set units to millimeters
M107 ; disable fan
M190 S65 ; wait for bed temperature to be reached
M104 S210 ; set temperature
;Printing with layer_height Z0.1
G21 ; set units to mm
G28 X0 Y0 Z0 ; home all axes

M109 S210 ; wait for temperature to be reached
G90 ; use absolute coordinates
G92 E0 ; reset extrusion distance
M82 ; use absolute distances for extrusion
G1 F1800.000 E-4.00000 ; retract
G1 Z0.400 F3000.000 ; move to next layer (0) and lift
G92 E0 ; reset extrusion distance
;LAYER: 
G1 X32.648 Y42.576 F3000.000 ; move to first skirt point
G1 Z0.200 F3000.000 ; restore layer Z
G1 E4.00000 F1800.000 ; compensate retraction
G1 X35.765 Y41.765 E4.10713 F1080.000 ; skirt
G1 X114.235 Y41.765 E6.71705 ; skirt
G1 X116.454 Y42.162 E6.79202 ; skirt
G1 X118.397 Y43.303 E6.86698 F1080.000 ; skirt
G1 X119.824 Y45.048 E6.94195 ; skirt
G1 X120.635 Y48.165 E7.04908 ; skirt
G1 X120.635 Y101.835 E8.83415 ; skirt
G1 X120.238 Y104.054 E8.90911 ; skirt
G1 X119.097 Y105.997 E8.98408 ; skirt
G1 X117.352 Y107.424 E9.05904 ; skirt
G1 X114.235 Y108.235 E9.16617 ; skirt
G1 X35.765 Y108.235 E11.77610 ; skirt
G1 X33.546 Y107.838 E11.85106 ; skirt
G1 X31.603 Y106.697 E11.92603 ; skirt
G1 X30.176 Y104.952 E12.00099 ; skirt
G1 X29.365 Y101.835 E12.10812 ; skirt
G1 X29.365 Y48.165 E13.89319 ; skirt
G1 X29.762 Y45.946 E13.96816 ; skirt
G1 X30.903 Y44.003 E14.04312 ; skirt
G1 X32.601 Y42.614 E14.11609 ; skirt
G1 F1800.000 E10.11609 ; retract
G1 Z0.400 F3000.000 ; lift plate during travel
G92 E0 ; reset extrusion distance
G1 X113.225 Y100.825 F3000.000 ; move to first perimeter point
G1 Z0.200 F3000.000 ; restore layer Z
G1 E4.00000 F1800.000 ; compensate retraction
G1 X36.775 Y100.825 E6.54274 F252.000 ; perimeter
G1 X36.775 Y49.175 E8.26062 ; perimeter
G1 X113.225 Y49.175 E10.80336 ; perimeter
G1 X113.225 Y100.765 E12.51925 ; perimeter
G1 X114.035 Y101.635 F3000.000 ; move to first perimeter point
G1 X35.965 Y101.635 E15.11587 F252.000 ; perimeter
G1 X35.965 Y48.365 E16.88764 ; perimeter
G1 X114.035 Y48.365 E19.48426 ; perimeter
G1 X114.035 Y101.575 E21.25403 ; perimeter
G1 F1800.000 E17.25403 ; retract
G1 Z0.400 F3000.000 ; lift plate during travel
G92 E0 ; reset extrusion distance
G1 X113.595 Y48.805 F3000.000 ; move to first fill point
G1 Z0.200 F3000.000 ; restore layer Z
G1 E4.00000 F1800.000 ; compensate retraction
G1 X113.630 Y48.975 E4.00803 F360.000 ; fill
G1 X113.630 Y101.025 E6.41906 ; fill
G1 X113.595 Y101.195 E6.42709 ; fill
G1 X113.425 Y101.230 E6.43513 ; fill
G1 X36.575 Y101.230 E9.99492 ; fill
G1 X36.405 Y101.195 E10.00296 ; fill
G1 X36.370 Y101.025 E10.01099 ; fill
G1 X36.370 Y48.975 E12.42202 ; fill
G1 X36.405 Y48.805 E12.43005 ; fill
G1 X36.575 Y48.770 E12.43809 ; fill
G1 X113.425 Y48.770 E15.99788 ; fill
G1 X113.536 Y48.793 E16.00314 ; fill
M106 S255 ; enable fan
G1 F1800.000 E12.00314 ; retract
G1 Z0.500 F3000.000 ; move to next layer (1) and lift
G92 E0 ; reset extrusion distance
;LAYER: 
G1 X36.805 Y49.205 F3000.000 ; move to first perimeter point
G1 Z0.300 F3000.000 ; restore layer Z
G1 E4.00000 F1800.000 ; compensate retraction
G1 X36.975 Y49.170 E4.00288 F600.000 ; perimeter
G1 X113.025 Y49.170 E5.26760 ; perimeter
G1 X113.195 Y49.205 E5.27049 ; perimeter
G1 X113.230 Y49.375 E5.27337 ; perimeter
G1 X113.230 Y100.625 E6.12566 ; perimeter
G1 X113.195 Y100.795 E6.12854 ; perimeter
G1 X113.025 Y100.830 E6.13143 ; perimeter
G1 X36.975 Y100.830 E7.39615 ; perimeter
G1 X36.805 Y100.795 E7.39903 ; perimeter
G1 X36.770 Y100.625 E7.40191 ; perimeter
G1 X36.770 Y49.375 E8.25420 ; perimeter
G1 X36.805 Y49.205 E8.25709 ; perimeter
G1 F1800.000 E4.25709 ; retract
G1 Z0.600 F3000.000 ; move to next layer (2) and lift
G92 E0 ; reset extrusion distance
;LAYER: 
G1 Z0.400 F3000.000 ; restore layer Z
G1 E4.00000 F1800.000 ; compensate retraction
G1 X36.975 Y49.170 E4.00288 F600.000 ; perimeter
G1 X113.025 Y49.170 E5.26760 ; perimeter
G1 X113.195 Y49.205 E5.27049 ; perimeter
G1 X113.230 Y49.375 E5.27337 ; perimeter
G1 X113.230 Y100.625 E6.12566 ; perimeter
G1 X113.195 Y100.795 E6.12854 ; perimeter
G1 X113.025 Y100.830 E6.13143 ; perimeter
G1 X36.975 Y100.830 E7.39615 ; perimeter
G1 X36.805 Y100.795 E7.39903 ; perimeter
G1 X36.770 Y100.625 E7.40191 ; perimeter
G1 X36.770 Y49.375 E8.25420 ; perimeter
G1 X36.805 Y49.205 E8.25709 ; perimeter
G1 F1800.000 E4.25709 ; retract
G1 Z0.700 F3000.000 ; move to next layer (3) and lift
G92 E0 ; reset extrusion distance
;LAYER: 
G1 Z0.500 F3000.000 ; restore layer Z
G1 E4.00000 F1800.000 ; compensate retraction
G1 X36.975 Y49.170 E4.00288 F600.000 ; perimeter
G1 X113.025 Y49.170 E5.26760 ; perimeter
G1 X113.195 Y49.205 E5.27049 ; perimeter
G1 X113.230 Y49.375 E5.27337 ; perimeter
G1 X113.230 Y100.625 E6.12566 ; perimeter
G1 X113.195 Y100.795 E6.12854 ; perimeter
G1 X113.025 Y100.830 E6.13143 ; perimeter
G1 X36.975 Y100.830 E7.39615 ; perimeter
G1 X36.805 Y100.795 E7.39903 ; perimeter
G1 X36.770 Y100.625 E7.40191 ; perimeter
G1 X36.770 Y49.375 E8.25420 ; perimeter
G1 X36.805 Y49.205 E8.25709 ; perimeter
G1 F1800.000 E4.25709 ; retract
G1 Z0.800 F3000.000 ; move to next layer (4) and lift
G92 E0 ; reset extrusion distance
;LAYER: 
G1 Z0.600 F3000.000 ; restore layer Z
G1 E4.00000 F1800.000 ; compensate retraction
G1 X36.975 Y49.170 E4.00288 F600.000 ; perimeter
G1 X113.025 Y49.170 E5.26760 ; perimeter
G1 X113.195 Y49.205 E5.27049 ; perimeter
G1 X113.230 Y49.375 E5.27337 ; perimeter
G1 X113.230 Y100.625 E6.12566 ; perimeter
G1 X113.195 Y100.795 E6.12854 ; perimeter
G1 X113.025 Y100.830 E6.13143 ; perimeter
G1 X36.975 Y100.830 E7.39615 ; perimeter
G1 X36.805 Y100.795 E7.39903 ; perimeter
G1 X36.770 Y100.625 E7.40191 ; perimeter
G1 X36.770 Y49.375 E8.25420 ; perimeter
G1 X36.805 Y49.205 E8.25709 ; perimeter
G1 F1800.000 E4.25709 ; retract
G1 Z0.900 F3000.000 ; move to next layer (5) and lift
G92 E0 ; reset extrusion distance
;LAYER: 
G1 Z0.700 F3000.000 ; restore layer Z
G1 E4.00000 F1800.000 ; compensate retraction
G1 X36.975 Y49.170 E4.00288 F600.000 ; perimeter
G1 X113.025 Y49.170 E5.26760 ; perimeter
G1 X113.195 Y49.205 E5.27049 ; perimeter
G1 X113.230 Y49.375 E5.27337 ; perimeter
G1 X113.230 Y100.625 E6.12566 ; perimeter
G1 X113.195 Y100.795 E6.12854 ; perimeter
G1 X113.025 Y100.830 E6.13143 ; perimeter
G1 X36.975 Y100.830 E7.39615 ; perimeter
G1 X36.805 Y100.795 E7.39903 ; perimeter
G1 X36.770 Y100.625 E7.40191 ; perimeter
G1 X36.770 Y49.375 E8.25420 ; perimeter
G1 X36.805 Y49.205 E8.25709 ; perimeter
G1 F1800.000 E4.25709 ; retract
G1 Z1.000 F3000.000 ; move to next layer (6) and lift
G92 E0 ; reset extrusion distance
;LAYER: 
G1 Z0.800 F3000.000 ; restore layer Z
G1 E4.00000 F1800.000 ; compensate retraction
G1 X36.975 Y49.170 E4.00288 F600.000 ; perimeter
G1 X113.025 Y49.170 E5.26760 ; perimeter
G1 X113.195 Y49.205 E5.27049 ; perimeter
G1 X113.230 Y49.375 E5.27337 ; perimeter
G1 X113.230 Y100.625 E6.12566 ; perimeter
G1 X113.195 Y100.795 E6.12854 ; perimeter
G1 X113.025 Y100.830 E6.13143 ; perimeter
G1 X36.975 Y100.830 E7.39615 ; perimeter
G1 X36.805 Y100.795 E7.39903 ; perimeter
G1 X36.770 Y100.625 E7.40191 ; perimeter
G1 X36.770 Y49.375 E8.25420 ; perimeter
G1 X36.805 Y49.205 E8.25709 ; perimeter
G1 F1800.000 E4.25709 ; retract
G1 Z1.100 F3000.000 ; move to next layer (7) and lift
G92 E0 ; reset extrusion distance
;LAYER: 
G1 Z0.900 F3000.000 ; restore layer Z
G1 E4.00000 F1800.000 ; compensate retraction
G1 X36.975 Y49.170 E4.00288 F600.000 ; perimeter
G1 X113.025 Y49.170 E5.26760 ; perimeter
G1 X113.195 Y49.205 E5.27049 ; perimeter
G1 X113.230 Y49.375 E5.27337 ; perimeter
G1 X113.230 Y100.625 E6.12566 ; perimeter
G1 X113.195 Y100.795 E6.12854 ; perimeter
G1 X113.025 Y100.830 E6.13143 ; perimeter
G1 X36.975 Y100.830 E7.39615 ; perimeter
G1 X36.805 Y100.795 E7.39903 ; perimeter
G1 X36.770 Y100.625 E7.40191 ; perimeter
G1 X36.770 Y49.375 E8.25420 ; perimeter
G1 X36.805 Y49.205 E8.25709 ; perimeter
G1 F1800.000 E4.25709 ; retract
G1 Z1.200 F3000.000 ; move to next layer (8) and lift
G92 E0 ; reset extrusion distance
;LAYER: 
G1 Z1.000 F3000.000 ; restore layer Z
G1 E4.00000 F1800.000 ; compensate retraction
G1 X36.975 Y49.170 E4.00288 F600.000 ; perimeter
G1 X113.025 Y49.170 E5.26760 ; perimeter
G1 X113.195 Y49.205 E5.27049 ; perimeter
G1 X113.230 Y49.375 E5.27337 ; perimeter
G1 X113.230 Y100.625 E6.12566 ; perimeter
G1 X113.195 Y100.795 E6.12854 ; perimeter
G1 X113.025 Y100.830 E6.13143 ; perimeter
G1 X36.975 Y100.830 E7.39615 ; perimeter
G1 X36.805 Y100.795 E7.39903 ; perimeter
G1 X36.770 Y100.625 E7.40191 ; perimeter
G1 X36.770 Y49.375 E8.25420 ; perimeter
G1 X36.805 Y49.205 E8.25709 ; perimeter
G1 F1800.000 E4.25709 ; retract
G1 Z1.300 F3000.000 ; move to next layer (9) and lift
G92 E0 ; reset extrusion distance
;LAYER: 
G1 Z1.100 F3000.000 ; restore layer Z
G1 E4.00000 F1800.000 ; compensate retraction
G1 X36.975 Y49.170 E4.00288 F600.000 ; perimeter
G1 X113.025 Y49.170 E5.26760 ; perimeter
G1 X113.195 Y49.205 E5.27049 ; perimeter
G1 X113.230 Y49.375 E5.27337 ; perimeter
G1 X113.230 Y100.625 E6.12566 ; perimeter
G1 X113.195 Y100.795 E6.12854 ; perimeter
G1 X113.025 Y100.830 E6.13143 ; perimeter
G1 X36.975 Y100.830 E7.39615 ; perimeter
G1 X36.805 Y100.795 E7.39903 ; perimeter
G1 X36.770 Y100.625 E7.40191 ; perimeter
G1 X36.770 Y49.375 E8.25420 ; perimeter
G1 X36.805 Y49.205 E8.25709 ; perimeter
G1 F1800.000 E4.25709 ; retract
G1 Z1.400 F3000.000 ; move to next layer (10) and lift
G92 E0 ; reset extrusion distance
;LAYER: 
G1 Z1.200 F3000.000 ; restore layer Z
G1 E4.00000 F1800.000 ; compensate retraction
G1 X36.975 Y49.170 E4.00288 F600.000 ; perimeter
G1 X113.025 Y49.170 E5.26760 ; perimeter
G1 X113.195 Y49.205 E5.27049 ; perimeter
G1 X113.230 Y49.375 E5.27337 ; perimeter
G1 X113.230 Y100.625 E6.12566 ; perimeter
G1 X113.195 Y100.795 E6.12854 ; perimeter
G1 X113.025 Y100.830 E6.13143 ; perimeter
G1 X36.975 Y100.830 E7.39615 ; perimeter
G1 X36.805 Y100.795 E7.39903 ; perimeter
G1 X36.770 Y100.625 E7.40191 ; perimeter
G1 X36.770 Y49.375 E8.25420 ; perimeter
G1 X36.805 Y49.205 E8.25709 ; perimeter
G1 F1800.000 E4.25709 ; retract
G1 Z1.500 F3000.000 ; move to next layer (11) and lift
G92 E0 ; reset extrusion distance
;LAYER: 
G1 X40.664 Y97.317 F3000.000 ; move to first perimeter point
G1 Z1.300 F3000.000 ; restore layer Z
G1 E4.00000 F1800.000 ; compensate retraction
M106 S255 ; enable fan
G1 X40.693 Y97.500 E4.00968 F3600.000 ; perimeter
G1 X40.664 Y97.683 E4.01937 ; perimeter
G1 X40.579 Y97.848 E4.02905 ; perimeter
G1 X40.448 Y97.979 E4.03874 ; perimeter
G1 X40.283 Y98.064 E4.04843 ; perimeter
G1 X40.100 Y98.093 E4.05811 ; perimeter
G1 X39.917 Y98.064 E4.06779 ; perimeter
G1 X39.752 Y97.979 E4.07748 ; perimeter
G1 X39.621 Y97.848 E4.08717 ; perimeter
G1 X39.536 Y97.683 E4.09685 ; perimeter
G1 X39.507 Y97.500 E4.10654 ; perimeter
G1 X39.536 Y97.317 E4.11622 ; perimeter
G1 X39.621 Y97.152 E4.12590 ; perimeter
G1 X39.752 Y97.021 E4.13559 ; perimeter
G1 X39.917 Y96.936 E4.14528 ; perimeter
G1 X40.100 Y96.907 E4.15496 ; perimeter
G1 X40.283 Y96.936 E4.16464 ; perimeter
G1 X40.448 Y97.021 E4.17433 ; perimeter
G1 X40.579 Y97.152 E4.18402 ; perimeter
G1 X40.636 Y97.263 E4.19057 ; perimeter
M106 S255 ; enable fan
G1 X41.098 Y97.500 F3000.000 ; move to first perimeter point
M106 S255 ; enable fan
G1 X41.049 Y97.808 E4.20687 F3600.000 ; perimeter
G1 X40.907 Y98.086 E4.22318 ; perimeter
G1 X40.686 Y98.307 E4.23948 ; perimeter
G1 X40.408 Y98.449 E4.25579 ; perimeter
G1 X40.100 Y98.498 E4.27209 ; perimeter
G1 X39.792 Y98.449 E4.28840 ; perimeter
G1 X39.514 Y98.307 E4.30470 ; perimeter
G1 X39.293 Y98.086 E4.32101 ; perimeter
G1 X39.151 Y97.808 E4.33731 ; perimeter
G1 X39.102 Y97.500 E4.35362 ; perimeter
G1 X39.151 Y97.192 E4.36992 ; perimeter
G1 X39.293 Y96.914 E4.38623 ; perimeter
G1 X39.514 Y96.693 E4.40253 ; perimeter
G1 X39.792 Y96.551 E4.41884 ; perimeter
G1 X40.100 Y96.502 E4.43514 ; perimeter
G1 X40.408 Y96.551 E4.45145 ; perimeter
G1 X40.686 Y96.693 E4.46775 ; perimeter
G1 X40.907 Y96.914 E4.48406 ; perimeter
G1 X41.049 Y97.192 E4.50036 ; perimeter
G1 X41.088 Y97.441 E4.51353 ; perimeter
M106 S255 ; enable fan
G1 X40.220 Y97.525 F3000.000 ; move to first fill point
M106 S255 ; enable fan
G1 X40.125 Y97.620 E4.52057 F3600.000 ; fill
M106 S255 ; enable fan
G1 F1800.000 E0.52057 ; retract
G1 Z1.500 F3000.000 ; lift plate during travel
G92 E0 ; reset extrusion distance
G1 X40.283 Y53.064 F3000.000 ; move to first perimeter point
G1 Z1.300 F3000.000 ; restore layer Z
G1 E4.00000 F1800.000 ; compensate retraction
M106 S255 ; enable fan
G1 X40.100 Y53.093 E4.00968 F3600.000 ; perimeter
G1 X39.917 Y53.064 E4.01937 ; perimeter
G1 X39.752 Y52.979 E4.02906 ; perimeter
G1 X39.621 Y52.848 E4.03874 ; perimeter
G1 X39.536 Y52.683 E4.04843 ; perimeter
G1 X39.507 Y52.500 E4.05811 ; perimeter
G1 X39.536 Y52.317 E4.06780 ; perimeter
G1 X39.621 Y52.152 E4.07748 ; perimeter
G1 X39.752 Y52.021 E4.08717 ; perimeter
G1 X39.917 Y51.936 E4.09685 ; perimeter
G1 X40.100 Y51.907 E4.10654 ; perimeter
G1 X40.283 Y51.936 E4.11622 ; perimeter
G1 X40.448 Y52.021 E4.12591 ; perimeter
G1 X40.579 Y52.152 E4.13559 ; perimeter
G1 X40.664 Y52.317 E4.14528 ; perimeter
G1 X40.693 Y52.500 E4.15496 ; perimeter
G1 X40.664 Y52.683 E4.16465 ; perimeter
G1 X40.579 Y52.848 E4.17433 ; perimeter
G1 X40.448 Y52.979 E4.18402 ; perimeter
G1 X40.337 Y53.036 E4.19057 ; perimeter
M106 S255 ; enable fan
G1 X41.098 Y52.500 F3000.000 ; move to first perimeter point
M106 S255 ; enable fan
G1 X41.049 Y52.808 E4.20688 F3600.000 ; perimeter
G1 X40.907 Y53.086 E4.22318 ; perimeter
G1 X40.686 Y53.307 E4.23949 ; perimeter
G1 X40.408 Y53.449 E4.25579 ; perimeter
G1 X40.100 Y53.498 E4.27210 ; perimeter
G1 X39.792 Y53.449 E4.28840 ; perimeter
G1 X39.514 Y53.307 E4.30471 ; perimeter
G1 X39.293 Y53.086 E4.32101 ; perimeter
G1 X39.151 Y52.808 E4.33732 ; perimeter
G1 X39.102 Y52.500 E4.35362 ; perimeter
G1 X39.151 Y52.192 E4.36993 ; perimeter
G1 X39.293 Y51.914 E4.38623 ; perimeter
G1 X39.514 Y51.693 E4.40254 ; perimeter
G1 X39.792 Y51.551 E4.41884 ; perimeter
G1 X40.100 Y51.502 E4.43515 ; perimeter
G1 X40.408 Y51.551 E4.45145 ; perimeter
G1 X40.686 Y51.693 E4.46776 ; perimeter
G1 X40.907 Y51.914 E4.48406 ; perimeter
G1 X41.049 Y52.192 E4.50037 ; perimeter
G1 X41.088 Y52.441 E4.51354 ; perimeter
M106 S255 ; enable fan
G1 X40.220 Y52.525 F3000.000 ; move to first fill point
M106 S255 ; enable fan
G1 X40.125 Y52.620 E4.52057 F3600.000 ; fill
M106 S255 ; enable fan
G1 F1800.000 E0.52057 ; retract
G1 Z1.500 F3000.000 ; lift plate during travel
G92 E0 ; reset extrusion distance
G1 X87.462 Y80.341 F3000.000 ; move to first perimeter point
G1 Z1.300 F3000.000 ; restore layer Z
G1 E4.00000 F1800.000 ; compensate retraction
M106 S255 ; enable fan
G1 X87.578 Y80.341 E4.00607 F3600.000 ; perimeter
G1 X87.672 Y80.410 E4.01213 ; perimeter
G1 X87.708 Y80.520 E4.01820 ; perimeter
G1 X87.672 Y80.630 E4.02427 ; perimeter
G1 X87.630 Y80.672 E4.02734 ; perimeter
G1 X87.520 Y80.708 E4.03341 ; perimeter
G1 X87.410 Y80.672 E4.03948 ; perimeter
G1 X87.368 Y80.630 E4.04255 ; perimeter
G1 X87.332 Y80.520 E4.04862 ; perimeter
G1 X87.341 Y80.462 E4.05169 ; perimeter
G1 X87.409 Y80.369 E4.05770 ; perimeter
M106 S255 ; enable fan
G1 X86.927 Y80.520 F3000.000 ; move to first perimeter point
M106 S255 ; enable fan
G1 X86.956 Y80.337 E4.06740 F3600.000 ; perimeter
G1 X87.040 Y80.171 E4.07709 ; perimeter
G1 X87.171 Y80.040 E4.08678 ; perimeter
G1 X87.337 Y79.956 E4.09647 ; perimeter
G1 X87.520 Y79.927 E4.10616 ; perimeter
G1 X87.703 Y79.956 E4.11586 ; perimeter
G1 X87.869 Y80.040 E4.12555 ; perimeter
G1 X88.000 Y80.171 E4.13524 ; perimeter
G1 X88.084 Y80.337 E4.14493 ; perimeter
G1 X88.113 Y80.520 E4.15462 ; perimeter
G1 X88.084 Y80.703 E4.16431 ; perimeter
G1 X88.000 Y80.869 E4.17401 ; perimeter
G1 X87.869 Y81.000 E4.18370 ; perimeter
G1 X87.703 Y81.084 E4.19339 ; perimeter
